X: 631
M: 2/4
L: 1/16
K: A
V: 1
E2 |\
fef=g fedc | BcdB edcB | A2Bc d2c2 | TB6 :|
|: (ga) |\
bagf e2d2 | c2B2A2e2 | fedc B2A2 | G2F2E2E2 |\
V: 2 clef=bass middle=d
z2 |\
a4 g4 | f4 d4 | e4 E4 | A4 z4 |\
d4 d'4- | d'4 c'4- | c'4 b2a2 | e6 :|
|: z2 |\
e4 g4 | a4 c4 | d4 ^d4 | e4- ed'c'b |\
a2g2 a2e2 | f4 c2d2 | e4 E4 | A6 |]

